X:635
T: Con Curtin's Big Balloon
T: Bal\'un M\'or Chonch\'uir Mhic Cruit\'in
S: B.Breathnach:"Ceol Rince na hEireann" III/22
Z: B.Black
L: 1/8
M: 6/8
R: jig
K: G
d|BGE EFE|BGE EdB|AFD DFD|DFA ded|
B2E EDE|BAB d2e|fdB BAF|1 GEE E2 :|2 GEE E3 ||
eBe gfe|bge efe|dAd fed|afd dgf|
eBe gfe|bge edc|BGE ABA|BGE E3|
eBe gfe|bge efe|dAd fef|afa def|
g2g aga|bge gfg|edB BAF|GEE E3 ||
